symbols/web/lock/materialsymbolsoutlined/lock_wght500gradN25_24px.svg

<svg xmlns="http://www.w3.org/2000/svg" height="24" width="24"><path d="M6.175 21.925q-.9 0-1.525-.625-.625-.625-.625-1.525v-9.7q0-.875.625-1.513.625-.637 1.525-.637h.9V6.15q0-2.05 1.438-3.488Q9.95 1.225 12 1.225t3.488 1.437Q16.925 4.1 16.925 6.15v1.775h.9q.9 0 1.525.637.625.638.625 1.513v9.7q0 .9-.625 1.525-.625.625-1.525.625Zm3.05-14h5.55V6.15q0-1.15-.812-1.962-.813-.813-1.963-.813-1.15 0-1.962.813Q9.225 5 9.225 6.15Zm-3.05 11.85h11.65v-9.7H6.175v9.7ZM12 16.85q.8 0 1.363-.562.562-.563.562-1.363 0-.775-.562-1.35Q12.8 13 12 13t-1.362.575q-.563.575-.563 1.35 0 .8.563 1.363.562.562 1.362.562Zm0-1.925Z"/></svg>

<svg xmlns="http://www.w3.org/2000/svg" height="24" width="24"><path d="M12 1.225Q14.05 1.225 15.488 2.662Q16.925 4.1 16.925 6.15V7.925H17.825Q18.725 7.925 19.35 8.562Q19.975 9.2 19.975 10.075V19.775Q19.975 20.675 19.35 21.3Q18.725 21.925 17.825 21.925H6.175Q5.275 21.925 4.65 21.3Q4.025 20.675 4.025 19.775V10.075Q4.025 9.2 4.65 8.562Q5.275 7.925 6.175 7.925H7.075V6.15Q7.075 4.1 8.513 2.662Q9.95 1.225 12 1.225ZM12 3.375Q10.85 3.375 10.038 4.188Q9.225 5 9.225 6.15V7.925H14.775V6.15Q14.775 5 13.963 4.188Q13.15 3.375 12 3.375ZM6.175 19.775H17.825Q17.825 19.775 17.825 19.775Q17.825 19.775 17.825 19.775V10.075Q17.825 10.075 17.825 10.075Q17.825 10.075 17.825 10.075H6.175Q6.175 10.075 6.175 10.075Q6.175 10.075 6.175 10.075V19.775Q6.175 19.775 6.175 19.775Q6.175 19.775 6.175 19.775ZM12 13Q11.2 13 10.638 13.575Q10.075 14.15 10.075 14.925Q10.075 15.725 10.638 16.288Q11.2 16.85 12 16.85Q12.8 16.85 13.363 16.288Q13.925 15.725 13.925 14.925Q13.925 14.15 13.363 13.575Q12.8 13 12 13ZM6.175 10.075Q6.175 10.075 6.175 10.075Q6.175 10.075 6.175 10.075V19.775Q6.175 19.775 6.175 19.775Q6.175 19.775 6.175 19.775Q6.175 19.775 6.175 19.775Q6.175 19.775 6.175 19.775V10.075Q6.175 10.075 6.175 10.075Q6.175 10.075 6.175 10.075Z"/></svg>
